X: 93
T: Master McDermott's
C: Sean McGuire, Liam Donnelly
M: C|
L: 1/8
R: reel
K:Dmaj
FE |"D" DF~F2 DEFA | dffe "G"dB~B2 |"D" AF~F2 dF~F2 | BFAF "A"EGFE |
"D" DF~F2 DEFA | dffe "G"dB~B2 |"D" AF~F2 dBAF |"A" EGFE "D" D2 :||
|: (3ABc | "D"dff2 dfaf |"G" ~g2bg "D"affe |"G" dBBA Bcde |"D" fdgf "A"e2 de |
"D"faaf "G"~g2 bg |"D" affe "G"dB~B2 |"D" AF~F2 dBAF | "A"EGFE "D" D2 :||


